svg/media/fullscreen_exit_line.svg

<?xml version="1.0" encoding="UTF-8"?>
<svg width="24px" height="24px" viewBox="0 0 24 24" version="1.1" xmlns="http://www.w3.org/2000/svg" xmlns:xlink="http://www.w3.org/1999/xlink">
    <title>fullscreen_exit_line</title>
    <g id="页面-1" stroke="none" stroke-width="1" fill="none" fill-rule="evenodd">
        <g id="Media" transform="translate(-432.000000, 0.000000)">
            <g id="fullscreen_exit_line" transform="translate(432.000000, 0.000000)">
                 <path d="M24,0 L24,24 L0,24 L0,0 L24,0 Z M12.5934901,23.257841 L12.5819402,23.2595131 L12.5108777,23.2950439 L12.4918791,23.2987469 L12.4918791,23.2987469 L12.4767152,23.2950439 L12.4056548,23.2595131 C12.3958229,23.2563662 12.3870493,23.2590235 12.3821421,23.2649074 L12.3780323,23.275831 L12.360941,23.7031097 L12.3658947,23.7234994 L12.3769048,23.7357139 L12.4804777,23.8096931 L12.4953491,23.8136134 L12.4953491,23.8136134 L12.5071152,23.8096931 L12.6106902,23.7357139 L12.6232938,23.7196733 L12.6232938,23.7196733 L12.6266527,23.7031097 L12.609561,23.275831 C12.6075724,23.2657013 12.6010112,23.2592993 12.5934901,23.257841 L12.5934901,23.257841 Z M12.8583906,23.1452862 L12.8445485,23.1473072 L12.6598443,23.2396597 L12.6498822,23.2499052 L12.6498822,23.2499052 L12.6471943,23.2611114 L12.6650943,23.6906389 L12.6699349,23.7034178 L12.6699349,23.7034178 L12.678386,23.7104931 L12.8793402,23.8032389 C12.8914285,23.8068999 12.9022333,23.8029875 12.9078286,23.7952264 L12.9118235,23.7811639 L12.8776777,23.1665331 C12.8752882,23.1545897 12.8674102,23.1470016 12.8583906,23.1452862 L12.8583906,23.1452862 Z M12.1430473,23.1473072 C12.1332178,23.1423925 12.1221763,23.1452606 12.1156365,23.1525954 L12.1099173,23.1665331 L12.0757714,23.7811639 C12.0751323,23.7926639 12.0828099,23.8018602 12.0926481,23.8045676 L12.108256,23.8032389 L12.3092106,23.7104931 L12.3186497,23.7024347 L12.3186497,23.7024347 L12.3225043,23.6906389 L12.340401,23.2611114 L12.337245,23.2485176 L12.337245,23.2485176 L12.3277531,23.2396597 L12.1430473,23.1473072 Z" id="MingCute" fill-rule="nonzero"></path>
                <path d="M20,7 L17,7 L17,4 C17,3.44772 16.5523,3 16,3 C15.4477,3 15,3.44772 15,4 L15,7 C15,8.10457 15.8954,9 17,9 L20,9 C20.5523,9 21,8.55229 21,8 C21,7.44772 20.5523,7 20,7 Z M7,9 C8.10457,9 9,8.10457 9,7 L9,4 C9,3.44772 8.55229,3 8,3 C7.44772,3 7,3.44772 7,4 L7,7 L4,7 C3.44772,7 3,7.44771 3,8 C3,8.55228 3.44772,9 4,9 L7,9 Z M7,17 L4,17 C3.44772,17 3,16.5523 3,16 C3,15.4477 3.44772,15 4,15 L7,15 C8.10457,15 9,15.8954 9,17 L9,20 C9,20.5523 8.55228,21 8,21 C7.44771,21 7,20.5523 7,20 L7,17 Z M17,15 C15.8954,15 15,15.8954 15,17 L15,20 C15,20.5523 15.4477,21 16,21 C16.5523,21 17,20.5523 17,20 L17,17 L20,17 C20.5523,17 21,16.5523 21,16 C21,15.4477 20.5523,15 20,15 L17,15 Z" id="形状" fill="#09244B"></path>
            </g>
        </g>
    </g>
</svg>

<svg xmlns="http://www.w3.org/2000/svg" width="24" height="24"><g fill="none" fill-rule="evenodd"><path d="M24 0v24H0V0h24ZM12.593 23.258l-.011.002-.071.035-.02.004-.014-.004-.071-.035c-.01-.004-.019-.001-.024.005l-.004.01-.017.428.005.02.01.013.104.074.015.004.012-.004.104-.074.012-.016.004-.017-.017-.427c-.002-.01-.009-.017-.017-.018Zm.265-.113-.013.002-.185.093-.01.01-.003.011.018.43.005.012.008.007.201.093c.012.004.023 0 .029-.008l.004-.014-.034-.614c-.003-.012-.01-.02-.02-.022Zm-.715.002a.023.023 0 0 0-.027.006l-.006.014-.034.614c0 .012.007.02.017.024l.015-.002.201-.093.01-.008.004-.011.017-.43-.003-.012-.01-.01-.184-.092Z"/><path fill="#09244B" d="M20 7h-3V4a1 1 0 1 0-2 0v3a2 2 0 0 0 2 2h3a1 1 0 1 0 0-2ZM7 9a2 2 0 0 0 2-2V4a1 1 0 1 0-2 0v3H4a1 1 0 1 0 0 2h3Zm0 8H4a1 1 0 1 1 0-2h3a2 2 0 0 1 2 2v3a1 1 0 1 1-2 0v-3Zm10-2a2 2 0 0 0-2 2v3a1 1 0 1 0 2 0v-3h3a1 1 0 1 0 0-2h-3Z"/></g></svg>
